static/img/kroki/14a44626a15f743dcd48497cdd97234b.svg

<?xml version="1.0" encoding="us-ascii" standalone="no"?><svg xmlns="http://www.w3.org/2000/svg" xmlns:xlink="http://www.w3.org/1999/xlink" contentStyleType="text/css" height="1059px" preserveAspectRatio="none" style="width:525px;height:1059px;" version="1.1" viewBox="0 0 525 1059" width="525px" zoomAndPan="magnify"><defs/><g><!--class aws_cloudformation_auto_deployment--><g id="elem_aws_cloudformation_auto_deployment"><rect codeLine="22" fill="#3D176E" height="100.3828" id="aws_cloudformation_auto_deployment" rx="2.5" ry="2.5" style="stroke:#000D19;stroke-width:0.5;" width="367" x="79" y="952.01"/><ellipse cx="94" cy="971.9045" fill="#ADD1B2" rx="11" ry="11" style="stroke:#181818;stroke-width:1.0;"/><path d="M96.9688,977.5452 Q96.3906,977.842 95.75,977.9827 Q95.1094,978.1389 94.4063,978.1389 Q91.9063,978.1389 90.5781,976.4983 Q89.2656,974.842 89.2656,971.717 Q89.2656,968.592 90.5781,966.9358 Q91.9063,965.2795 94.4063,965.2795 Q95.1094,965.2795 95.75,965.4358 Q96.4063,965.592 96.9688,965.8889 L96.9688,968.6077 Q96.3438,968.0295 95.75,967.7639 Q95.1563,967.4827 94.5313,967.4827 Q93.1875,967.4827 92.5,968.5608 Q91.8125,969.6233 91.8125,971.717 Q91.8125,973.8108 92.5,974.8889 Q93.1875,975.9514 94.5313,975.9514 Q95.1563,975.9514 95.75,975.6858 Q96.3438,975.4045 96.9688,974.8264 L96.9688,977.5452 Z " fill="#000000"/><text fill="#D9B8FF" font-family="Helvetica" font-size="17" lengthAdjust="spacing" textLength="325" x="113" y="977.7898">aws_cloudformation_auto_deployment</text><line style="stroke:#000D19;stroke-width:0.5;" x1="80" x2="445" y1="991.7991" y2="991.7991"/><text fill="#D9B8FF" font-family="sans-serif" font-size="14" font-weight="bold" lengthAdjust="spacing" textLength="63" x="90" y="1013.7942">enabled</text><text fill="#D9B8FF" font-family="sans-serif" font-size="14" lengthAdjust="spacing" textLength="65" x="153" y="1013.7942">: boolean</text><text fill="#D9B8FF" font-family="sans-serif" font-size="14" font-weight="bold" lengthAdjust="spacing" textLength="271" x="90" y="1040.0911">retain_stacks_on_account_removal</text><text fill="#D9B8FF" font-family="sans-serif" font-size="14" lengthAdjust="spacing" textLength="65" x="361" y="1040.0911">: boolean</text></g><!--class aws_cloudformation_stack_set--><g id="elem_aws_cloudformation_stack_set"><rect codeLine="26" fill="#3D176E" height="258.1641" id="aws_cloudformation_stack_set" rx="2.5" ry="2.5" style="stroke:#000D19;stroke-width:0.5;" width="511" x="7" y="633.84"/><ellipse cx="125.75" cy="653.7345" fill="#ADD1B2" rx="11" ry="11" style="stroke:#181818;stroke-width:1.0;"/><path d="M128.7188,659.3752 Q128.1406,659.672 127.5,659.8127 Q126.8594,659.9689 126.1563,659.9689 Q123.6563,659.9689 122.3281,658.3283 Q121.0156,656.672 121.0156,653.547 Q121.0156,650.422 122.3281,648.7658 Q123.6563,647.1095 126.1563,647.1095 Q126.8594,647.1095 127.5,647.2658 Q128.1563,647.422 128.7188,647.7189 L128.7188,650.4377 Q128.0938,649.8595 127.5,649.5939 Q126.9063,649.3127 126.2813,649.3127 Q124.9375,649.3127 124.25,650.3908 Q123.5625,651.4533 123.5625,653.547 Q123.5625,655.6408 124.25,656.7189 Q124.9375,657.7814 126.2813,657.7814 Q126.9063,657.7814 127.5,657.5158 Q128.0938,657.2345 128.7188,656.6564 L128.7188,659.3752 Z " fill="#000000"/><text fill="#D9B8FF" font-family="Helvetica" font-size="17" lengthAdjust="spacing" textLength="255" x="151.25" y="659.6198">aws_cloudformation_stack_set</text><line style="stroke:#000D19;stroke-width:0.5;" x1="8" x2="517" y1="673.6291" y2="673.6291"/><text fill="#D9B8FF" font-family="sans-serif" font-size="14" font-weight="bold" lengthAdjust="spacing" textLength="89" x="18" y="695.6242">description</text><text fill="#D9B8FF" font-family="sans-serif" font-size="14" lengthAdjust="spacing" textLength="48" x="107" y="695.6242">: string</text><text fill="#D9B8FF" font-family="sans-serif" font-size="14" font-weight="bold" lengthAdjust="spacing" textLength="216" x="18" y="721.9211">stack_set_auto_deployment</text><text fill="#D9B8FF" font-family="sans-serif" font-size="14" lengthAdjust="spacing" textLength="273" x="234" y="721.9211">: aws_cloudformation_auto_deployment</text><text fill="#D9B8FF" font-family="sans-serif" font-size="14" font-weight="bold" lengthAdjust="spacing" textLength="170" x="18" y="748.2179">stack_set_drift_status</text><text fill="#D9B8FF" font-family="sans-serif" font-size="14" lengthAdjust="spacing" textLength="48" x="188" y="748.2179">: string</text><text fill="#D9B8FF" font-family="sans-serif" font-size="14" font-weight="bold" lengthAdjust="spacing" textLength="292" x="18" y="774.5148">stack_set_last_drift_check_timestamp</text><text fill="#D9B8FF" font-family="sans-serif" font-size="14" lengthAdjust="spacing" textLength="70" x="310" y="774.5148">: datetime</text><text fill="#D9B8FF" font-family="sans-serif" font-size="14" font-weight="bold" lengthAdjust="spacing" textLength="238" x="18" y="800.8117">stack_set_managed_execution</text><text fill="#D9B8FF" font-family="sans-serif" font-size="14" lengthAdjust="spacing" textLength="65" x="256" y="800.8117">: boolean</text><text fill="#D9B8FF" font-family="sans-serif" font-size="14" font-weight="bold" lengthAdjust="spacing" textLength="172" x="18" y="827.1086">stack_set_parameters</text><text fill="#D9B8FF" font-family="sans-serif" font-size="14" lengthAdjust="spacing" textLength="156" x="190" y="827.1086">: dictionary[string, any]</text><text fill="#D9B8FF" font-family="sans-serif" font-size="14" font-weight="bold" lengthAdjust="spacing" textLength="223" x="18" y="853.4054">stack_set_permission_model</text><text fill="#D9B8FF" font-family="sans-serif" font-size="14" lengthAdjust="spacing" textLength="48" x="241" y="853.4054">: string</text><text fill="#D9B8FF" font-family="sans-serif" font-size="14" font-weight="bold" lengthAdjust="spacing" textLength="130" x="18" y="879.7023">stack_set_status</text><text fill="#D9B8FF" font-family="sans-serif" font-size="14" lengthAdjust="spacing" textLength="48" x="148" y="879.7023">: string</text></g><!--class aws_resource--><g id="elem_aws_resource"><rect codeLine="36" fill="#3D176E" height="74.0859" id="aws_resource" rx="2.5" ry="2.5" style="stroke:#000D19;stroke-width:0.5;" width="155" x="185" y="438.76"/><ellipse cx="200" cy="458.6545" fill="#ADD1B2" rx="11" ry="11" style="stroke:#181818;stroke-width:1.0;"/><path d="M202.9688,464.2952 Q202.3906,464.592 201.75,464.7327 Q201.1094,464.8889 200.4063,464.8889 Q197.9063,464.8889 196.5781,463.2483 Q195.2656,461.592 195.2656,458.467 Q195.2656,455.342 196.5781,453.6858 Q197.9063,452.0295 200.4063,452.0295 Q201.1094,452.0295 201.75,452.1858 Q202.4063,452.342 202.9688,452.6389 L202.9688,455.3577 Q202.3438,454.7795 201.75,454.5139 Q201.1563,454.2327 200.5313,454.2327 Q199.1875,454.2327 198.5,455.3108 Q197.8125,456.3733 197.8125,458.467 Q197.8125,460.5608 198.5,461.6389 Q199.1875,462.7014 200.5313,462.7014 Q201.1563,462.7014 201.75,462.4358 Q202.3438,462.1545 202.9688,461.5764 L202.9688,464.2952 Z " fill="#000000"/><text fill="#D9B8FF" font-family="Helvetica" font-size="17" lengthAdjust="spacing" textLength="113" x="219" y="464.5398">aws_resource</text><line style="stroke:#000D19;stroke-width:0.5;" x1="186" x2="339" y1="478.5491" y2="478.5491"/><text fill="#D9B8FF" font-family="sans-serif" font-size="14" font-weight="bold" lengthAdjust="spacing" textLength="26" x="196" y="500.5442">arn</text><text fill="#D9B8FF" font-family="sans-serif" font-size="14" lengthAdjust="spacing" textLength="48" x="222" y="500.5442">: string</text></g><!--class resource--><g id="elem_resource"><rect codeLine="39" fill="#3D176E" height="310.7578" id="resource" rx="2.5" ry="2.5" style="stroke:#000D19;stroke-width:0.5;" width="227" x="149" y="7"/><ellipse cx="217.75" cy="26.8945" fill="#ADD1B2" rx="11" ry="11" style="stroke:#181818;stroke-width:1.0;"/><path d="M220.7188,32.5352 Q220.1406,32.832 219.5,32.9727 Q218.8594,33.1289 218.1563,33.1289 Q215.6563,33.1289 214.3281,31.4883 Q213.0156,29.832 213.0156,26.707 Q213.0156,23.582 214.3281,21.9258 Q215.6563,20.2695 218.1563,20.2695 Q218.8594,20.2695 219.5,20.4258 Q220.1563,20.582 220.7188,20.8789 L220.7188,23.5977 Q220.0938,23.0195 219.5,22.7539 Q218.9063,22.4727 218.2813,22.4727 Q216.9375,22.4727 216.25,23.5508 Q215.5625,24.6133 215.5625,26.707 Q215.5625,28.8008 216.25,29.8789 Q216.9375,30.9414 218.2813,30.9414 Q218.9063,30.9414 219.5,30.6758 Q220.0938,30.3945 220.7188,29.8164 L220.7188,32.5352 Z " fill="#000000"/><text fill="#D9B8FF" font-family="Helvetica" font-size="17" lengthAdjust="spacing" textLength="71" x="243.25" y="32.7798">resource</text><line style="stroke:#000D19;stroke-width:0.5;" x1="150" x2="375" y1="46.7891" y2="46.7891"/><text fill="#D9B8FF" font-family="sans-serif" font-size="14" font-weight="bold" lengthAdjust="spacing" textLength="29" x="160" y="68.7842">age</text><text fill="#D9B8FF" font-family="sans-serif" font-size="14" lengthAdjust="spacing" textLength="66" x="189" y="68.7842">: duration</text><text fill="#D9B8FF" font-family="sans-serif" font-size="14" font-weight="bold" lengthAdjust="spacing" textLength="43" x="160" y="95.0811">atime</text><text fill="#D9B8FF" font-family="sans-serif" font-size="14" lengthAdjust="spacing" textLength="70" x="203" y="95.0811">: datetime</text><text fill="#D9B8FF" font-family="sans-serif" font-size="14" font-weight="bold" lengthAdjust="spacing" textLength="43" x="160" y="121.3779">ctime</text><text fill="#D9B8FF" font-family="sans-serif" font-size="14" lengthAdjust="spacing" textLength="70" x="203" y="121.3779">: datetime</text><text fill="#D9B8FF" font-family="sans-serif" font-size="14" font-weight="bold" lengthAdjust="spacing" textLength="14" x="160" y="147.6748">id</text><text fill="#D9B8FF" font-family="sans-serif" font-size="14" lengthAdjust="spacing" textLength="48" x="174" y="147.6748">: string</text><text fill="#D9B8FF" font-family="sans-serif" font-size="14" font-weight="bold" lengthAdjust="spacing" textLength="33" x="160" y="173.9717">kind</text><text fill="#D9B8FF" font-family="sans-serif" font-size="14" lengthAdjust="spacing" textLength="48" x="193" y="173.9717">: string</text><text fill="#D9B8FF" font-family="sans-serif" font-size="14" font-weight="bold" lengthAdjust="spacing" textLength="90" x="160" y="200.2686">last_access</text><text fill="#D9B8FF" font-family="sans-serif" font-size="14" lengthAdjust="spacing" textLength="66" x="250" y="200.2686">: duration</text><text fill="#D9B8FF" font-family="sans-serif" font-size="14" font-weight="bold" lengthAdjust="spacing" textLength="90" x="160" y="226.5654">last_update</text><text fill="#D9B8FF" font-family="sans-serif" font-size="14" lengthAdjust="spacing" textLength="66" x="250" y="226.5654">: duration</text><text fill="#D9B8FF" font-family="sans-serif" font-size="14" font-weight="bold" lengthAdjust="spacing" textLength="48" x="160" y="252.8623">mtime</text><text fill="#D9B8FF" font-family="sans-serif" font-size="14" lengthAdjust="spacing" textLength="70" x="208" y="252.8623">: datetime</text><text fill="#D9B8FF" font-family="sans-serif" font-size="14" font-weight="bold" lengthAdjust="spacing" textLength="43" x="160" y="279.1592">name</text><text fill="#D9B8FF" font-family="sans-serif" font-size="14" lengthAdjust="spacing" textLength="48" x="203" y="279.1592">: string</text><text fill="#D9B8FF" font-family="sans-serif" font-size="14" font-weight="bold" lengthAdjust="spacing" textLength="34" x="160" y="305.4561">tags</text><text fill="#D9B8FF" font-family="sans-serif" font-size="14" lengthAdjust="spacing" textLength="171" x="194" y="305.4561">: dictionary[string, string]</text></g><!--link aws_cloudformation_stack_set to aws_cloudformation_auto_deployment--><g id="link_aws_cloudformation_stack_set_aws_cloudformation_auto_deployment"><path codeLine="51" d="M262.5,892.28 C262.5,911.05 262.5,929.5 262.5,945.72 " fill="none" id="aws_cloudformation_stack_set-to-aws_cloudformation_auto_deployment" style="stroke:#FFAF37;stroke-width:2.0;"/><polygon fill="#FFAF37" points="262.5,950.59,266.5,941.59,262.5,945.59,258.5,941.59,262.5,950.59" style="stroke:#FFAF37;stroke-width:2.0;"/></g><!--reverse link aws_resource to aws_cloudformation_stack_set--><g id="link_aws_resource_aws_cloudformation_stack_set"><path codeLine="52" d="M262.5,534.01 C262.5,562.68 262.5,598.62 262.5,633.44 " fill="none" id="aws_resource-backto-aws_cloudformation_stack_set" style="stroke:#FFAF37;stroke-width:2.0;"/><polygon fill="none" points="255.5,534.2,262.5,514.2,269.5,534.2,255.5,534.2" style="stroke:#FFAF37;stroke-width:2.0;"/></g><!--reverse link resource to aws_resource--><g id="link_resource_aws_resource"><path codeLine="53" d="M262.5,338.97 C262.5,376.78 262.5,413 262.5,438.51 " fill="none" id="resource-backto-aws_resource" style="stroke:#FFAF37;stroke-width:2.0;"/><polygon fill="none" points="255.5,339.18,262.5,319.18,269.5,339.18,255.5,339.18" style="stroke:#FFAF37;stroke-width:2.0;"/></g><!--SRC=[ZPHRQzj048NV_IiMycPgi1DQnwKK4aDfNq9f-bQ26EsEvCNQNJ4xYkjU_djtfTZHnRBxP3ZppPupey4RhL2WANal39eKoK_yLjiI28ou8tAxjIiSYQiiW-ncsIz-SfOl0WzWK7p6uXbPI-WJtpTQRYrwBwvRfNkGsvnSPLNpF1DO7qfekKMj2_3-ZfbqMZ6smgXLUfjbVRB_wDMDMYpVuG1pf91UaFbyhXQhFdBHwkpSH-9H_qAnQ2_jmJ4EOWuiQkfioaYqGWu6FTH7Ctu5fRJDnTkMzgt9H1QfepzkGBbTf3CeVDl6Cn8wtfUu7ao5grkLBK_2NyPW6JSdOESJMRXAPOuCi7OsWOfTeh0itDw46n6_9zCfMaWBLDFfUv4wLo3O818oQ9ju3Wu-YPrI1XzE28rxXg9D_nttg_iJZusJGYz9bx4I-tquI9i7_KZryqNgyXIT5nJfZAClLtx498GzS7A3GMHjC9HD6HiKC4QXqsB0GeugmPyegqF-rsszWlKdml25QdEbPOI1zZ-Q76y4sFrJjmF9QE_ZNCOfB4P23oPgRvtGkuearbi6iYUmBf9Z7Q-YUg5HYIFtnfSdDAqw-S9HTeLwj-5MmXzLpw6kL6LygrSn9tmiDDBnOOPyRANDxrCOzUm5pcOV_-UOEllyy6SscvqzxCa9zY3z0m00]--></g></svg>

<svg xmlns="http://www.w3.org/2000/svg" width="525" height="1059" preserveAspectRatio="none" style="width:525px;height:1059px"><rect width="367" height="100.383" x="79" y="952.01" fill="#3D176E" rx="2.5" ry="2.5" style="stroke:#000d19;stroke-width:.5"/><circle cx="94" cy="971.904" r="11" fill="#ADD1B2" style="stroke:#181818;stroke-width:1"/><path d="M96.969 977.545q-.578.297-1.219.438-.64.156-1.344.156-2.5 0-3.828-1.64-1.312-1.657-1.312-4.782t1.312-4.781q1.328-1.657 3.828-1.657.703 0 1.344.157.656.156 1.219.453v2.719q-.625-.578-1.219-.844-.594-.281-1.219-.281-1.344 0-2.031 1.078-.688 1.062-.688 3.156 0 2.094.688 3.172.688 1.062 2.031 1.062.625 0 1.219-.265.594-.282 1.219-.86v2.72Z"/><text x="113" y="977.79" fill="#D9B8FF" font-family="Helvetica" font-size="17" textLength="325">aws_cloudformation_auto_deployment</text><path d="M80 991.799h365" style="stroke:#000d19;stroke-width:.5"/><text x="90" y="1013.794" fill="#D9B8FF" font-family="sans-serif" font-size="14" font-weight="bold" textLength="63">enabled</text><text x="153" y="1013.794" fill="#D9B8FF" font-family="sans-serif" font-size="14" textLength="65">: boolean</text><text x="90" y="1040.091" fill="#D9B8FF" font-family="sans-serif" font-size="14" font-weight="bold" textLength="271">retain_stacks_on_account_removal</text><text x="361" y="1040.091" fill="#D9B8FF" font-family="sans-serif" font-size="14" textLength="65">: boolean</text><rect width="511" height="258.164" x="7" y="633.84" fill="#3D176E" rx="2.5" ry="2.5" style="stroke:#000d19;stroke-width:.5"/><circle cx="125.75" cy="653.735" r="11" fill="#ADD1B2" style="stroke:#181818;stroke-width:1"/><path d="M128.719 659.375q-.578.297-1.219.438-.64.156-1.344.156-2.5 0-3.828-1.64-1.312-1.657-1.312-4.782t1.312-4.781q1.328-1.656 3.828-1.656.703 0 1.344.156.656.156 1.219.453v2.719q-.625-.578-1.219-.844-.594-.281-1.219-.281-1.344 0-2.031 1.078-.688 1.062-.688 3.156 0 2.094.688 3.172.688 1.062 2.031 1.062.625 0 1.219-.265.594-.281 1.219-.86v2.72Z"/><text x="151.25" y="659.62" fill="#D9B8FF" font-family="Helvetica" font-size="17" textLength="255">aws_cloudformation_stack_set</text><path d="M8 673.629h509" style="stroke:#000d19;stroke-width:.5"/><text x="18" y="695.624" fill="#D9B8FF" font-family="sans-serif" font-size="14" font-weight="bold" textLength="89">description</text><text x="107" y="695.624" fill="#D9B8FF" font-family="sans-serif" font-size="14" textLength="48">: string</text><text x="18" y="721.921" fill="#D9B8FF" font-family="sans-serif" font-size="14" font-weight="bold" textLength="216">stack_set_auto_deployment</text><text x="234" y="721.921" fill="#D9B8FF" font-family="sans-serif" font-size="14" textLength="273">: aws_cloudformation_auto_deployment</text><text x="18" y="748.218" fill="#D9B8FF" font-family="sans-serif" font-size="14" font-weight="bold" textLength="170">stack_set_drift_status</text><text x="188" y="748.218" fill="#D9B8FF" font-family="sans-serif" font-size="14" textLength="48">: string</text><text x="18" y="774.515" fill="#D9B8FF" font-family="sans-serif" font-size="14" font-weight="bold" textLength="292">stack_set_last_drift_check_timestamp</text><text x="310" y="774.515" fill="#D9B8FF" font-family="sans-serif" font-size="14" textLength="70">: datetime</text><text x="18" y="800.812" fill="#D9B8FF" font-family="sans-serif" font-size="14" font-weight="bold" textLength="238">stack_set_managed_execution</text><text x="256" y="800.812" fill="#D9B8FF" font-family="sans-serif" font-size="14" textLength="65">: boolean</text><text x="18" y="827.109" fill="#D9B8FF" font-family="sans-serif" font-size="14" font-weight="bold" textLength="172">stack_set_parameters</text><text x="190" y="827.109" fill="#D9B8FF" font-family="sans-serif" font-size="14" textLength="156">: dictionary[string, any]</text><text x="18" y="853.405" fill="#D9B8FF" font-family="sans-serif" font-size="14" font-weight="bold" textLength="223">stack_set_permission_model</text><text x="241" y="853.405" fill="#D9B8FF" font-family="sans-serif" font-size="14" textLength="48">: string</text><text x="18" y="879.702" fill="#D9B8FF" font-family="sans-serif" font-size="14" font-weight="bold" textLength="130">stack_set_status</text><text x="148" y="879.702" fill="#D9B8FF" font-family="sans-serif" font-size="14" textLength="48">: string</text><rect width="155" height="74.086" x="185" y="438.76" fill="#3D176E" rx="2.5" ry="2.5" style="stroke:#000d19;stroke-width:.5"/><circle cx="200" cy="458.654" r="11" fill="#ADD1B2" style="stroke:#181818;stroke-width:1"/><path d="M202.969 464.295q-.578.297-1.219.438-.64.156-1.344.156-2.5 0-3.828-1.64-1.312-1.657-1.312-4.782t1.312-4.781q1.328-1.656 3.828-1.656.703 0 1.344.156.656.156 1.219.453v2.719q-.625-.579-1.219-.844-.594-.281-1.219-.281-1.344 0-2.031 1.078-.688 1.062-.688 3.156 0 2.094.688 3.172.688 1.062 2.031 1.062.625 0 1.219-.265.594-.281 1.219-.86v2.72Z"/><text x="219" y="464.54" fill="#D9B8FF" font-family="Helvetica" font-size="17" textLength="113">aws_resource</text><path d="M186 478.549h153" style="stroke:#000d19;stroke-width:.5"/><text x="196" y="500.544" fill="#D9B8FF" font-family="sans-serif" font-size="14" font-weight="bold" textLength="26">arn</text><text x="222" y="500.544" fill="#D9B8FF" font-family="sans-serif" font-size="14" textLength="48">: string</text><rect width="227" height="310.758" x="149" y="7" fill="#3D176E" rx="2.5" ry="2.5" style="stroke:#000d19;stroke-width:.5"/><circle cx="217.75" cy="26.895" r="11" fill="#ADD1B2" style="stroke:#181818;stroke-width:1"/><path d="M220.719 32.535q-.578.297-1.219.438-.64.156-1.344.156-2.5 0-3.828-1.64-1.312-1.657-1.312-4.782t1.312-4.781q1.328-1.656 3.828-1.656.703 0 1.344.156.656.156 1.219.453v2.719q-.625-.578-1.219-.844-.594-.281-1.219-.281-1.344 0-2.031 1.078-.688 1.062-.688 3.156 0 2.094.688 3.172.688 1.062 2.031 1.062.625 0 1.219-.265.594-.281 1.219-.86v2.72Z"/><text x="243.25" y="32.78" fill="#D9B8FF" font-family="Helvetica" font-size="17" textLength="71">resource</text><path d="M150 46.789h225" style="stroke:#000d19;stroke-width:.5"/><text x="160" y="68.784" fill="#D9B8FF" font-family="sans-serif" font-size="14" font-weight="bold" textLength="29">age</text><text x="189" y="68.784" fill="#D9B8FF" font-family="sans-serif" font-size="14" textLength="66">: duration</text><text x="160" y="95.081" fill="#D9B8FF" font-family="sans-serif" font-size="14" font-weight="bold" textLength="43">atime</text><text x="203" y="95.081" fill="#D9B8FF" font-family="sans-serif" font-size="14" textLength="70">: datetime</text><text x="160" y="121.378" fill="#D9B8FF" font-family="sans-serif" font-size="14" font-weight="bold" textLength="43">ctime</text><text x="203" y="121.378" fill="#D9B8FF" font-family="sans-serif" font-size="14" textLength="70">: datetime</text><text x="160" y="147.675" fill="#D9B8FF" font-family="sans-serif" font-size="14" font-weight="bold" textLength="14">id</text><text x="174" y="147.675" fill="#D9B8FF" font-family="sans-serif" font-size="14" textLength="48">: string</text><text x="160" y="173.972" fill="#D9B8FF" font-family="sans-serif" font-size="14" font-weight="bold" textLength="33">kind</text><text x="193" y="173.972" fill="#D9B8FF" font-family="sans-serif" font-size="14" textLength="48">: string</text><text x="160" y="200.269" fill="#D9B8FF" font-family="sans-serif" font-size="14" font-weight="bold" textLength="90">last_access</text><text x="250" y="200.269" fill="#D9B8FF" font-family="sans-serif" font-size="14" textLength="66">: duration</text><text x="160" y="226.565" fill="#D9B8FF" font-family="sans-serif" font-size="14" font-weight="bold" textLength="90">last_update</text><text x="250" y="226.565" fill="#D9B8FF" font-family="sans-serif" font-size="14" textLength="66">: duration</text><text x="160" y="252.862" fill="#D9B8FF" font-family="sans-serif" font-size="14" font-weight="bold" textLength="48">mtime</text><text x="208" y="252.862" fill="#D9B8FF" font-family="sans-serif" font-size="14" textLength="70">: datetime</text><text x="160" y="279.159" fill="#D9B8FF" font-family="sans-serif" font-size="14" font-weight="bold" textLength="43">name</text><text x="203" y="279.159" fill="#D9B8FF" font-family="sans-serif" font-size="14" textLength="48">: string</text><text x="160" y="305.456" fill="#D9B8FF" font-family="sans-serif" font-size="14" font-weight="bold" textLength="34">tags</text><text x="194" y="305.456" fill="#D9B8FF" font-family="sans-serif" font-size="14" textLength="171">: dictionary[string, string]</text><path fill="none" d="M262.5 892.28v53.44" style="stroke:#ffaf37;stroke-width:2"/><path fill="#FFAF37" d="m262.5 950.59 4-9-4 4-4-4 4 9z" style="stroke:#ffaf37;stroke-width:2"/><path fill="none" d="M262.5 534.01v99.43m-7-99.24 7-20 7 20h-14zm7-195.23v99.54m-7-99.33 7-20 7 20h-14z" style="stroke:#ffaf37;stroke-width:2"/></svg>
